**kern	**silbe	**harmony	**phrase	**leadinstrument	**rhyme	**timestamp	**harte
*ICvox	*	*M4/4	*	*	*	*	*M4/4
*VRlead	*	*	*	*	*	*	*
*Hstimme	*	*	*	*	*	*	*
*E-:	*	*E-:	*	*	*	*	*E-:
*M4/4	*	*	*	*	*	*	*
*clefF4	*	*	*	*	*	*	*
r;	.	1r;	.	r	.	0	N.C.
=1	=1	=1	=1	=1	=1	=1	=1
*>Letter>A	*>Letter>A	*>Letter>A	*>Letter>A	*>Letter>A	*>Letter>A	*>Letter>A	*>Letter>A
*>Label>Intro	*>Label>Intro	*>Label>Intro	*>Label>Intro	*>Label>Intro	*>Label>Intro	*>Label>Intro	*>Label>Intro
1r	.	1E-M	newline	synthesizer	.	0.789	E-:maj
=2	=2	=2	=2	=2	=2	=2	=2
1r	.	1E-M	.	synthesizer	.	2.02	E-:maj
=3	=3	=3	=3	=3	=3	=3	=3
1r	.	1E-M	newline	synthesizer	.	3.251	E-:maj
=4	=4	=4	=4	=4	=4	=4	=4
1r	.	1E-M	.	synthesizer	.	4.777	E-:maj
=5	=5	=5	=5	=5	=5	=5	=5
1r	.	1E-M	.	synthesizer	.	6.304	E-:maj
=6	=6	=6	=6	=6	=6	=6	=6
1r	.	1E-M	.	synthesizer	.	7.83	E-:maj
=7	=7	=7	=7	=7	=7	=7	=7
1r	.	1E-M	newline	synthesizer	.	9.357	E-:maj
=8	=8	=8	=8	=8	=8	=8	=8
1r	.	1E-M	.	synthesizer	.	11.022	E-:maj
=9	=9	=9	=9	=9	=9	=9	=9
1r	.	1E-M	.	synthesizer	.	12.687	E-:maj
=10	=10	=10	=10	=10	=10	=10	=10
1r	.	1E-M	.	synthesizer	.	14.352	E-:maj
=11	=11	=11	=11	=11	=11	=11	=11
1r	.	1E-M	newline	synthesizer	.	16.017	E-:maj
=12	=12	=12	=12	=12	=12	=12	=12
1r	.	1E-M	.	synthesizer	.	17.719	E-:maj
=13	=13	=13	=13	=13	=13	=13	=13
1r	.	1E-M	.	synthesizer	.	19.421	E-:maj
=14	=14	=14	=14	=14	=14	=14	=14
1r	.	1E-M	.	synthesizer	.	21.123	E-:maj
=15	=15	=15	=15	=15	=15	=15	=15
1r	.	1E-M	newline	guitar	.	22.825	E-:maj
=16	=16	=16	=16	=16	=16	=16	=16
1r	.	1E-M	.	guitar	.	24.532	E-:maj
=17	=17	=17	=17	=17	=17	=17	=17
1r	.	1Gm	.	guitar	.	26.239	G:min
=18	=18	=18	=18	=18	=18	=18	=18
1r	.	1Gm	.	guitar	.	27.945	G:min
=19	=19	=19	=19	=19	=19	=19	=19
1r	.	1E-M	newline	guitar	.	29.652	E-:maj
=20	=20	=20	=20	=20	=20	=20	=20
1r	.	1E-M	.	guitar	.	31.364	E-:maj
=21	=21	=21	=21	=21	=21	=21	=21
1r	.	1Gm	.	guitar	.	33.077	G:min
=22	=22	=22	=22	=22	=22	=22	=22
1r	.	1Gm	.	guitar	.	34.789	G:min
=23	=23	=23	=23	=23	=23	=23	=23
*>Letter>B	*>Letter>B	*>Letter>B	*>Letter>B	*>Letter>B	*>Letter>B	*>Letter>B	*>Letter>B
*>Label>Verse	*>Label>Verse	*>Label>Verse	*>Label>Verse	*>Label>Verse	*>Label>Verse	*>Label>Verse	*>Label>Verse
4r	.	1E-M	newline	voice	.	36.502	E-:maj
4B-	Young	.	.	.	.	.	.
4A	tea-	.	.	.	.	.	.
4F	-cher	.	.	.	.	.	.
=24	=24	=24	=24	=24	=24	=24	=24
4r	.	1E-M	.	voice	.	38.208	E-:maj
4B-	the	.	.	.	.	.	.
4A	sub-	.	.	.	.	.	.
4F	-ject	.	.	.	.	.	.
=25	=25	=25	=25	=25	=25	=25	=25
4r	.	1Gm	.	voice	.	39.913	G:min
4B-	of	.	.	.	.	.	.
4A	school-	.	.	.	.	.	.
4F	-girl	.	.	.	.	.	.
=26	=26	=26	=26	=26	=26	=26	=26
4D	fan-	1Gm	.	voice	.	41.619	G:min
8G	-ta-	.	.	.	.	.	.
4.G	-sy	.	.	.	A	.	.
4r	.	.	.	.	.	.	.
=27	=27	=27	=27	=27	=27	=27	=27
4r	.	1E-M	newline	voice	.	43.325	E-:maj
4B-	She	.	.	.	.	.	.
4A	wants	.	.	.	.	.	.
4F	him	.	.	.	.	.	.
=28	=28	=28	=28	=28	=28	=28	=28
4r	.	1E-M	.	voice	.	45.03	E-:maj
4B-	so	.	.	.	.	.	.
4A	bad-	.	.	.	.	.	.
4F	-ly	.	.	.	.	.	.
=29	=29	=29	=29	=29	=29	=29	=29
4r	.	1Gm	.	voice	.	46.734	G:min
4B-	Knows	.	.	.	.	.	.
4A	what	.	.	.	.	.	.
4F	she	.	.	.	.	.	.
=30	=30	=30	=30	=30	=30	=30	=30
4D	wants	1Gm	.	voice	.	48.438	G:min
8G	to	.	.	.	.	.	.
4.G	be	.	.	.	A	.	.
4r	.	.	.	.	.	.	.
=31	=31	=31	=31	=31	=31	=31	=31
4r	.	1E-M	newline	voice	.	50.143	E-:maj
4B-	In-	.	.	.	.	.	.
4A	-side	.	.	.	.	.	.
4F	her	.	.	.	.	.	.
=32	=32	=32	=32	=32	=32	=32	=32
4r	.	1E-M	.	voice	.	51.841	E-:maj
4B-	there's	.	.	.	.	.	.
4A	long-	.	.	.	.	.	.
4F	-ing	.	.	.	.	.	.
=33	=33	=33	=33	=33	=33	=33	=33
4r	.	1Gm	.	voice	.	53.539	G:min
4B-	This	.	.	.	.	.	.
4A	girl's	.	.	.	.	.	.
4F	an	.	.	.	.	.	.
=34	=34	=34	=34	=34	=34	=34	=34
4D	o-	1Gm	.	voice	.	55.237	G:min
4.G	-pen	.	.	.	.	.	.
4.G	page	.	.	.	B	.	.
=35	=35	=35	=35	=35	=35	=35	=35
4r	.	1E-M	newline	voice	.	56.935	E-:maj
4B-	Book	.	.	.	.	.	.
4A	mark-	.	.	.	.	.	.
4F	-ing	.	.	.	.	.	.
=36	=36	=36	=36	=36	=36	=36	=36
8r	.	1E-M	.	voice	.	58.645	E-:maj
8F	she's	.	.	.	.	.	.
4B-	so	.	.	.	.	.	.
4A	close	.	.	.	.	.	.
4F	now	.	.	.	.	.	.
=37	=37	=37	=37	=37	=37	=37	=37
4r	.	1Gm	.	voice	.	60.354	G:min
4B-	This	.	.	.	.	.	.
4A	girl	.	.	.	.	.	.
4F	is	.	.	.	.	.	.
=38	=38	=38	=38	=38	=38	=38	=38
4D	half	1Gm	.	voice	.	62.064	G:min
8G	his	.	.	.	.	.	.
4.G	age	.	.	.	B	.	.
4r	.	.	.	.	.	.	.
=39	=39	=39	=39	=39	=39	=39	=39
*>Letter>C	*>Letter>C	*>Letter>C	*>Letter>C	*>Letter>C	*>Letter>C	*>Letter>C	*>Letter>C
*>Label>Chorus	*>Label>Chorus	*>Label>Chorus	*>Label>Chorus	*>Label>Chorus	*>Label>Chorus	*>Label>Chorus	*>Label>Chorus
*clefG2	*	*	*	*	*	*	*
*D:	*	*D:	*	*	*	*	*D:
4r	.	2DM	newline	voice	.	63.773	D:maj
4a	Don't	.	.	.	.	.	.
4a	stand	2AM	.	voice	.	64.628	A:maj
4r	.	.	.	.	.	.	.
=40	=40	=40	=40	=40	=40	=40	=40
4r	.	2DM	.	voice	.	65.483	D:maj
4a	Don't	.	.	.	.	.	.
4a	stand	2AM	.	voice	.	66.337	A:maj
8f#	so	.	.	.	.	.	.
8r	.	.	.	.	.	.	.
=41	=41	=41	=41	=41	=41	=41	=41
4r	.	2Bmm	.	voice	.	67.192	B:min7
4a	Don't	.	.	.	.	.	.
4a	stand	2Bmm	.	voice	.	68.047	B:min7/b7
4f#	so	.	.	.	.	.	.
=42	=42	=42	=42	=42	=42	=42	=42
4d	close	2DM	.	voice	.	68.901	D:maj/5
8e	to	.	.	.	.	.	.
4.f#	me	.	.	.	.	.	.
.	.	2AM	.	voice	.	69.756	A:maj
4r	.	.	.	.	.	.	.
=43	=43	=43	=43	=43	=43	=43	=43
4r	.	2DM	newline	voice	.	70.611	D:maj
4a	Don't	.	.	.	.	.	.
4a	stand	2AM	.	voice	.	71.465	A:maj
4r	.	.	.	.	.	.	.
=44	=44	=44	=44	=44	=44	=44	=44
4r	.	2DM	.	voice	.	72.32	D:maj
4a	Don't	.	.	.	.	.	.
4a	stand	2AM	.	voice	.	73.175	A:maj
8f#	so	.	.	.	.	.	.
8r	.	.	.	.	.	.	.
=45	=45	=45	=45	=45	=45	=45	=45
4r	.	2Bmm	.	voice	.	74.029	B:min7
4a	Don't	.	.	.	.	.	.
4a	stand	2Bmm	.	voice	.	74.884	B:min7/b7
4f#	so	.	.	.	.	.	.
=46	=46	=46	=46	=46	=46	=46	=46
4d	close	2DM	.	voice	.	75.738	D:maj/5
8e	to	.	.	.	.	.	.
4.f#	me	.	.	.	.	.	.
.	.	2AM	.	voice	.	76.593	A:maj
4r	.	.	.	.	.	.	.
=47	=47	=47	=47	=47	=47	=47	=47
1r	.	2DM	.	voice	.	77.448	D:maj/5
.	.	2AM	.	voice	.	78.302	A:maj
=48	=48	=48	=48	=48	=48	=48	=48
*>Letter>B	*>Letter>B	*>Letter>B	*>Letter>B	*>Letter>B	*>Letter>B	*>Letter>B	*>Letter>B
*>Label>Verse	*>Label>Verse	*>Label>Verse	*>Label>Verse	*>Label>Verse	*>Label>Verse	*>Label>Verse	*>Label>Verse
*E-:	*	*E-:	*	*	*	*	*E-:
8r	.	1E-M	newline	voice	.	79.157	E-:maj
4b-	Her	.	.	.	.	.	.
4a	friends	.	.	.	.	.	.
4.f	are	.	.	.	.	.	.
=49	=49	=49	=49	=49	=49	=49	=49
4r	.	1E-M	.	voice	.	80.864	E-:maj
4b-	so	.	.	.	.	.	.
4a	jea-	.	.	.	.	.	.
8f	-lous	.	.	.	.	.	.
8r	.	.	.	.	.	.	.
=50	=50	=50	=50	=50	=50	=50	=50
4r	.	1Gm	.	voice	.	82.571	G:min
4b-	You	.	.	.	.	.	.
4a	know	.	.	.	.	.	.
4f	how	.	.	.	.	.	.
=51	=51	=51	=51	=51	=51	=51	=51
4d	bad	1Gm	.	voice	.	84.279	G:min
4.g	girls	.	.	.	.	.	.
4g	get	.	.	.	C	.	.
8r	.	.	.	.	.	.	.
=52	=52	=52	=52	=52	=52	=52	=52
4r	.	1E-M	newline	voice	.	85.986	E-:maj
4b-	Some-	.	.	.	.	.	.
4a	-times	.	.	.	.	.	.
4f	it's	.	.	.	.	.	.
=53	=53	=53	=53	=53	=53	=53	=53
4g	not	1E-M	.	voice	.	87.68	E-:maj
4b-	so	.	.	.	.	.	.
4a	ea-	.	.	.	.	.	.
8f	-sy	.	.	.	.	.	.
8r	.	.	.	.	.	.	.
=54	=54	=54	=54	=54	=54	=54	=54
4r	.	1Gm	.	voice	.	89.375	G:min
4b-	to	.	.	.	.	.	.
4a	be	.	.	.	.	.	.
4f	the	.	.	.	.	.	.
=55	=55	=55	=55	=55	=55	=55	=55
4d	teach-	1Gm	.	voice	.	91.069	G:min
4.g	-er's	.	.	.	.	.	.
8g	pet	.	.	.	C	.	.
4r	.	.	.	.	.	.	.
=56	=56	=56	=56	=56	=56	=56	=56
4r	.	1E-M	newline	voice	.	92.764	E-:maj
4b-	Temp-	.	.	.	.	.	.
4a	-ta-	.	.	.	(D	.	.
8f	-tion	.	.	.	d)	.	.
8r	.	.	.	.	.	.	.
=57	=57	=57	=57	=57	=57	=57	=57
4r	.	1E-M	.	voice	.	94.476	E-:maj
4b-	Frus-	.	.	.	.	.	.
4a	-tra-	.	.	.	(D	.	.
8f	-tion	.	.	.	d)	.	.
8r	.	.	.	.	.	.	.
=58	=58	=58	=58	=58	=58	=58	=58
4r	.	1Gm	.	voice	.	96.188	G:min
4b-	so	.	.	.	.	.	.
4a	bad	.	.	.	.	.	.
4f	it	.	.	.	.	.	.
=59	=59	=59	=59	=59	=59	=59	=59
4d	makes	1Gm	.	voice	.	97.9	G:min
4.g	him	.	.	.	.	.	.
4.g	cry	.	.	.	E	.	.
=60	=60	=60	=60	=60	=60	=60	=60
4r	.	1E-M	newline	voice	.	99.612	E-:maj
4b-	Wet	.	.	.	.	.	.
4a	bus	.	.	.	.	.	.
8f	stop	.	.	.	.	.	.
8r	.	.	.	.	.	.	.
=61	=61	=61	=61	=61	=61	=61	=61
4r	.	1E-M	.	voice	.	101.314	E-:maj
4b-	She's	.	.	.	.	.	.
4a	wai-	.	.	.	.	.	.
4f	-ting	.	.	.	.	.	.
=62	=62	=62	=62	=62	=62	=62	=62
4r	.	1Gm	.	voice	.	103.017	G:min
4b-	His	.	.	.	.	.	.
4a	car	.	.	.	.	.	.
4f	is	.	.	.	.	.	.
=63	=63	=63	=63	=63	=63	=63	=63
4d	warm	1Gm	.	voice	.	104.72	G:min
4.g	and	.	.	.	.	.	.
4.g	dry	.	.	.	E	.	.
=64	=64	=64	=64	=64	=64	=64	=64
*>Letter>C	*>Letter>C	*>Letter>C	*>Letter>C	*>Letter>C	*>Letter>C	*>Letter>C	*>Letter>C
*>Label>Chorus	*>Label>Chorus	*>Label>Chorus	*>Label>Chorus	*>Label>Chorus	*>Label>Chorus	*>Label>Chorus	*>Label>Chorus
*D:	*	*D:	*	*	*	*	*D:
4r	.	2DM	newline	voice	.	106.422	D:maj
4a	Don't	.	.	.	.	.	.
4a	stand	2AM	.	voice	.	107.279	A:maj
4r	.	.	.	.	.	.	.
=65	=65	=65	=65	=65	=65	=65	=65
4r	.	2DM	.	voice	.	108.136	D:maj
4a	Don't	.	.	.	.	.	.
4a	stand	2AM	.	voice	.	108.993	A:maj
8f#	so	.	.	.	.	.	.
8r	.	.	.	.	.	.	.
=66	=66	=66	=66	=66	=66	=66	=66
4r	.	2Bmm	.	voice	.	109.849	B:min7
4a	Don't	.	.	.	.	.	.
4a	stand	2Bmm	.	voice	.	110.706	B:min7/b7
4f#	so	.	.	.	.	.	.
=67	=67	=67	=67	=67	=67	=67	=67
4d	close	2DM	.	voice	.	111.563	D:maj/5
8e	to	.	.	.	.	.	.
4.f#	me	.	.	.	.	.	.
.	.	2AM	.	voice	.	112.42	A:maj
4r	.	.	.	.	.	.	.
=68	=68	=68	=68	=68	=68	=68	=68
4r	.	2DM	newline	voice	.	113.276	D:maj
4a	Don't	.	.	.	.	.	.
4a	stand	2AM	.	voice	.	114.13	A:maj
4r	.	.	.	.	.	.	.
=69	=69	=69	=69	=69	=69	=69	=69
4r	.	2DM	.	voice	.	114.984	D:maj
4a	Don't	.	.	.	.	.	.
4a	stand	2AM	.	voice	.	115.837	A:maj
8f#	so	.	.	.	.	.	.
8r	.	.	.	.	.	.	.
=70	=70	=70	=70	=70	=70	=70	=70
4r	.	2Bmm	.	voice	.	116.691	B:min7
4a	Don't	.	.	.	.	.	.
4a	stand	2Bmm	.	voice	.	117.544	B:min7/b7
4f#	so	.	.	.	.	.	.
=71	=71	=71	=71	=71	=71	=71	=71
4d	close	2DM	.	voice	.	118.398	D:maj/5
8e	to	.	.	.	.	.	.
4.f#	me	.	.	.	.	.	.
.	.	2AM	.	voice	.	119.252	A:maj
4r	.	.	.	.	.	.	.
=72	=72	=72	=72	=72	=72	=72	=72
1r	.	2DM	.	voice	.	120.105	D:maj/5
.	.	2AM	.	voice	.	120.959	A:maj
=73	=73	=73	=73	=73	=73	=73	=73
*>Letter>B	*>Letter>B	*>Letter>B	*>Letter>B	*>Letter>B	*>Letter>B	*>Letter>B	*>Letter>B
*>Label>Verse	*>Label>Verse	*>Label>Verse	*>Label>Verse	*>Label>Verse	*>Label>Verse	*>Label>Verse	*>Label>Verse
*E-:	*	*E-:	*	*	*	*	*E-:
8r	.	1E-M	newline	voice	.	121.812	E-:maj
4b-	Loose	.	.	.	.	.	.
4a	talk	.	.	.	.	.	.
4.f	in	.	.	.	.	.	.
=74	=74	=74	=74	=74	=74	=74	=74
4r	.	1E-M	.	voice	.	123.523	E-:maj
4b-	the	.	.	.	.	.	.
4a	class-	.	.	.	F	.	.
4f	-room	.	.	.	.	.	.
=75	=75	=75	=75	=75	=75	=75	=75
4r	.	1Gm	.	voice	.	125.234	G:min
4b-	To	.	.	.	.	.	.
4a	hurt	.	.	.	.	.	.
4f	they	.	.	.	.	.	.
=76	=76	=76	=76	=76	=76	=76	=76
4d	try	1Gm	.	voice	.	126.944	G:min
4.g	and	.	.	.	.	.	.
4.g	try	.	.	.	E	.	.
=77	=77	=77	=77	=77	=77	=77	=77
4r	.	1E-M	newline	voice	.	128.655	E-:maj
4b-	Strong	.	.	.	.	.	.
4a	words	.	.	.	.	.	.
4f	in	.	.	.	.	.	.
=78	=78	=78	=78	=78	=78	=78	=78
4r	.	1E-M	.	voice	.	130.356	E-:maj
4b-	the	.	.	.	.	.	.
4a	staff-	.	.	.	f	.	.
4f	-room	.	.	.	.	.	.
=79	=79	=79	=79	=79	=79	=79	=79
4r	.	1Gm	.	voice	.	132.057	G:min
4b-	The	.	.	.	.	.	.
4a	acc-	.	.	.	.	.	.
4f	-u-	.	.	.	.	.	.
=80	=80	=80	=80	=80	=80	=80	=80
4d	-sa-	1Gm	.	voice	.	133.759	G:min
4.g	-tions	.	.	.	.	.	.
4.g	fly	.	.	.	E	.	.
=81	=81	=81	=81	=81	=81	=81	=81
4r	.	1E-M	newline	voice	.	135.46	E-:maj
4b-	It's	.	.	.	.	.	.
4a	no	.	.	.	.	.	.
4f	use	.	.	.	.	.	.
=82	=82	=82	=82	=82	=82	=82	=82
4r	.	1E-M	.	voice	.	137.165	E-:maj
4b-	He	.	.	.	.	.	.
4a	sees	.	.	.	.	.	.
8f	her	.	.	.	.	.	.
8r	.	.	.	.	.	.	.
=83	=83	=83	=83	=83	=83	=83	=83
4r	.	1Gm	.	voice	.	138.871	G:min
4b-	He	.	.	.	.	.	.
4a	starts	.	.	.	.	.	.
4f	to	.	.	.	.	.	.
=84	=84	=84	=84	=84	=84	=84	=84
4d	shake	1Gm	.	voice	.	140.577	G:min
4.g	and	.	.	.	.	.	.
4.g	cough	.	.	.	G	.	.
=85	=85	=85	=85	=85	=85	=85	=85
4r	.	1E-M	newline	voice	.	142.282	E-:maj
4b-	Just	.	.	.	.	.	.
4a	like	.	.	.	.	.	.
8f	the	.	.	.	.	.	.
8r	.	.	.	.	.	.	.
=86	=86	=86	=86	=86	=86	=86	=86
4r	.	1E-M	.	voice	.	143.987	E-:maj
4b-	old	.	.	.	.	.	.
4a	man	.	.	.	.	.	.
8f	in	.	.	.	.	.	.
8r	.	.	.	.	.	.	.
=87	=87	=87	=87	=87	=87	=87	=87
4r	.	1Gm	.	voice	.	145.691	G:min
4b-	that	.	.	.	.	.	.
4a	book	.	.	.	.	.	.
4f	by	.	.	.	.	.	.
=88	=88	=88	=88	=88	=88	=88	=88
4d	Na-	1Gm	.	voice	.	147.396	G:min
8g	-ba-	.	.	.	.	.	.
4.g	-kov	.	.	.	G	.	.
4r	.	.	.	.	.	.	.
=89	=89	=89	=89	=89	=89	=89	=89
*>Letter>C	*>Letter>C	*>Letter>C	*>Letter>C	*>Letter>C	*>Letter>C	*>Letter>C	*>Letter>C
*>Label>Chorus	*>Label>Chorus	*>Label>Chorus	*>Label>Chorus	*>Label>Chorus	*>Label>Chorus	*>Label>Chorus	*>Label>Chorus
*D:	*	*D:	*	*	*	*	*D:
4r	.	2DM	newline	voice	.	149.101	D:maj
4a	Don't	.	.	.	.	.	.
4a	stand	2AM	.	voice	.	149.958	A:maj
4r	.	.	.	.	.	.	.
=90	=90	=90	=90	=90	=90	=90	=90
4r	.	2DM	.	voice	.	150.815	D:maj
4a	Don't	.	.	.	.	.	.
4a	stand	2AM	.	voice	.	151.672	A:maj
8f#	so	.	.	.	.	.	.
8r	.	.	.	.	.	.	.
=91	=91	=91	=91	=91	=91	=91	=91
4r	.	2Bmm	.	voice	.	152.529	B:min7
4a	Don't	.	.	.	.	.	.
4a	stand	2Bmm	.	voice	.	153.386	B:min7/b7
4f#	so	.	.	.	.	.	.
=92	=92	=92	=92	=92	=92	=92	=92
4d	close	2DM	.	voice	.	154.243	D:maj/5
8e	to	.	.	.	.	.	.
4.f#	me	.	.	.	.	.	.
.	.	2AM	.	voice	.	155.1	A:maj
4r	.	.	.	.	.	.	.
=93	=93	=93	=93	=93	=93	=93	=93
4r	.	2DM	newline	voice	.	155.958	D:maj
4a	Don't	.	.	.	.	.	.
4a	stand	2AM	.	voice	.	156.81	A:maj
4r	.	.	.	.	.	.	.
=94	=94	=94	=94	=94	=94	=94	=94
4r	.	2DM	.	voice	.	157.662	D:maj
4a	Don't	.	.	.	.	.	.
4a	stand	2AM	.	voice	.	158.514	A:maj
8f#	so	.	.	.	.	.	.
8r	.	.	.	.	.	.	.
=95	=95	=95	=95	=95	=95	=95	=95
4r	.	2Bmm	.	voice	.	159.367	B:min7
4a	Don't	.	.	.	.	.	.
4a	stand	2Bmm	.	voice	.	160.219	B:min7/b7
4f#	so	.	.	.	.	.	.
=96	=96	=96	=96	=96	=96	=96	=96
4d	close	2DM	.	voice	.	161.071	D:maj/5
8e	to	.	.	.	.	.	.
4.f#	me	.	.	.	.	.	.
.	.	2AM	.	voice	.	161.924	A:maj
4r	.	.	.	.	.	.	.
=97	=97	=97	=97	=97	=97	=97	=97
1r	.	2DM	.	voice	.	162.776	D:maj/5
.	.	2AM	.	voice	.	163.628	A:maj
=98	=98	=98	=98	=98	=98	=98	=98
1r	.	2DM	newline	guitar	.	164.48	D:maj/5
.	.	2AM	.	guitar	.	165.33	A:maj
=99	=99	=99	=99	=99	=99	=99	=99
1r	.	2DM	.	guitar	.	166.18	D:maj/5
.	.	2AM	.	guitar	.	167.03	A:maj
=100	=100	=100	=100	=100	=100	=100	=100
*>Letter>B	*>Letter>B	*>Letter>B	*>Letter>B	*>Letter>B	*>Letter>B	*>Letter>B	*>Letter>B
*>Label>Instrumental	*>Label>Instrumental	*>Label>Instrumental	*>Label>Instrumental	*>Label>Instrumental	*>Label>Instrumental	*>Label>Instrumental	*>Label>Instrumental
1r	.	1E-M	newline	synthesizer	.	167.879	E-:maj
=101	=101	=101	=101	=101	=101	=101	=101
1r	.	1E-M	.	synthesizer	.	169.577	E-:maj
=102	=102	=102	=102	=102	=102	=102	=102
1r	.	1Gm	.	synthesizer	.	171.275	G:min
=103	=103	=103	=103	=103	=103	=103	=103
1r	.	1Gm	.	synthesizer	.	172.974	G:min
=104	=104	=104	=104	=104	=104	=104	=104
1r	.	1E-M	newline	synthesizer	.	174.672	E-:maj
=105	=105	=105	=105	=105	=105	=105	=105
1r	.	1E-M	.	synthesizer	.	176.385	E-:maj
=106	=106	=106	=106	=106	=106	=106	=106
1r	.	1Gm	.	synthesizer	.	178.099	G:min
=107	=107	=107	=107	=107	=107	=107	=107
1r	.	1Gm	.	synthesizer	.	179.813	G:min
=108	=108	=108	=108	=108	=108	=108	=108
1r	.	1E-M	newline	synthesizer	.	181.526	E-:maj
=109	=109	=109	=109	=109	=109	=109	=109
1r	.	1E-M	.	synthesizer	.	183.226	E-:maj
=110	=110	=110	=110	=110	=110	=110	=110
1r	.	1Gm	.	synthesizer	.	184.925	G:min
=111	=111	=111	=111	=111	=111	=111	=111
1r	.	1Gm	.	synthesizer	.	186.625	G:min
=112	=112	=112	=112	=112	=112	=112	=112
1r	.	1E-M	newline	synthesizer	.	188.324	E-:maj
=113	=113	=113	=113	=113	=113	=113	=113
1r	.	1E-M	.	synthesizer	.	190.023	E-:maj
=114	=114	=114	=114	=114	=114	=114	=114
1r	.	1Gm	.	synthesizer	.	191.722	G:min
=115	=115	=115	=115	=115	=115	=115	=115
1r	.	1Gm	.	synthesizer	.	193.422	G:min
=116	=116	=116	=116	=116	=116	=116	=116
*>Letter>C	*>Letter>C	*>Letter>C	*>Letter>C	*>Letter>C	*>Letter>C	*>Letter>C	*>Letter>C
*>Label>Chorus	*>Label>Chorus	*>Label>Chorus	*>Label>Chorus	*>Label>Chorus	*>Label>Chorus	*>Label>Chorus	*>Label>Chorus
*D:	*	*D:	*	*	*	*	*D:
4r	.	2DM	newline	voice	.	195.121	D:maj
4a	Don't	.	.	.	.	.	.
4a	stand	2AM	.	voice	.	195.977	A:maj
4r	.	.	.	.	.	.	.
=117	=117	=117	=117	=117	=117	=117	=117
4r	.	2DM	.	voice	.	196.832	D:maj
4a	Don't	.	.	.	.	.	.
4a	stand	2AM	.	voice	.	197.688	A:maj
8f#	so	.	.	.	.	.	.
8r	.	.	.	.	.	.	.
=118	=118	=118	=118	=118	=118	=118	=118
4r	.	2Bmm	.	voice	.	198.544	B:min7
4a	Don't	.	.	.	.	.	.
4a	stand	2Bmm	.	voice	.	199.4	B:min7/b7
4f#	so	.	.	.	.	.	.
=119	=119	=119	=119	=119	=119	=119	=119
4d	close	2DM	.	voice	.	200.256	D:maj/5
8e	to	.	.	.	.	.	.
4.f#	me	.	.	.	.	.	.
.	.	2AM	.	voice	.	201.112	A:maj
4r	.	.	.	.	.	.	.
=120	=120	=120	=120	=120	=120	=120	=120
4r	.	2DM	newline	voice	.	201.968	D:maj
4a	Don't	.	.	.	.	.	.
4a	stand	2AM	.	voice	.	202.818	A:maj
4r	.	.	.	.	.	.	.
=121	=121	=121	=121	=121	=121	=121	=121
4r	.	2DM	.	voice	.	203.667	D:maj
4a	Don't	.	.	.	.	.	.
4a	stand	2AM	.	voice	.	204.517	A:maj
8f#	so	.	.	.	.	.	.
8r	.	.	.	.	.	.	.
=122	=122	=122	=122	=122	=122	=122	=122
4r	.	2Bmm	.	voice	.	205.366	B:min7
4a	Don't	.	.	.	.	.	.
4a	stand	2Bmm	.	voice	.	206.216	B:min7/b7
4f#	so	.	.	.	.	.	.
=123	=123	=123	=123	=123	=123	=123	=123
4d	close	2DM	.	voice	.	207.065	D:maj/5
8e	to	.	.	.	.	.	.
4.f#	me	.	.	.	.	.	.
.	.	2AM	.	voice	.	207.915	A:maj
4r	.	.	.	.	.	.	.
=124	=124	=124	=124	=124	=124	=124	=124
4r	.	2DM	newline	voice	.	208.764	D:maj
4a	Don't	.	.	.	.	.	.
4a	stand	2AM	.	voice	.	209.622	A:maj
4r	.	.	.	.	.	.	.
=125	=125	=125	=125	=125	=125	=125	=125
4r	.	2DM	.	voice	.	210.479	D:maj
4a	Don't	.	.	.	.	.	.
4a	stand	2AM	.	voice	.	211.337	A:maj
8f#	so	.	.	.	.	.	.
8r	.	.	.	.	.	.	.
=126	=126	=126	=126	=126	=126	=126	=126
4r	.	2Bmm	.	voice	.	212.194	B:min7
4a	Don't	.	.	.	.	.	.
4a	stand	2Bmm	.	voice	.	213.052	B:min7/b7
4f#	so	.	.	.	.	.	.
=127	=127	=127	=127	=127	=127	=127	=127
4d	close	2DM	.	voice	.	213.909	D:maj/5
8e	to	.	.	.	.	.	.
4.f#	me	.	.	.	.	.	.
.	.	2AM	.	voice	.	214.767	A:maj
4r	.	.	.	.	.	.	.
=128	=128	=128	=128	=128	=128	=128	=128
*>Label>>Fadeout	*>Label>>Fadeout	*>Label>>Fadeout	*>Label>>Fadeout	*>Label>>Fadeout	*>Label>>Fadeout	*>Label>>Fadeout	*>Label>>Fadeout
4r	.	2DM	newline	voice	.	215.624	D:maj
4a	Don't	.	.	.	.	.	.
4a	stand	2AM	.	voice	.	216.477	A:maj
4r	.	.	.	.	.	.	.
=129	=129	=129	=129	=129	=129	=129	=129
4r	.	2DM	.	voice	.	217.33	D:maj
4a	Don't	.	.	.	.	.	.
4a	stand	2AM	.	voice	.	218.183	A:maj
8f#	so	.	.	.	.	.	.
8r	.	.	.	.	.	.	.
=130	=130	=130	=130	=130	=130	=130	=130
4r	.	2Bmm	.	voice	.	219.036	B:min7
4a	Don't	.	.	.	.	.	.
4a	stand	2Bmm	.	voice	.	219.889	B:min7/b7
4f#	so	.	.	.	.	.	.
=131	=131	=131	=131	=131	=131	=131	=131
4d	close	2DM	.	voice	.	220.742	D:maj/5
8e	to	.	.	.	.	.	.
4.f#	me	.	.	.	.	.	.
.	.	2AM	.	voice	.	221.595	A:maj
4r	.	.	.	.	.	.	.
=132	=132	=132	=132	=132	=132	=132	=132
4r	.	2DM	newline	voice	.	222.448	D:maj
4a	Don't	.	.	.	.	.	.
4a	stand	2AM	.	voice	.	223.297	A:maj
4r	.	.	.	.	.	.	.
=133	=133	=133	=133	=133	=133	=133	=133
4r	.	2DM	.	voice	.	224.146	D:maj
4a	Don't	.	.	.	.	.	.
4a	stand	2AM	.	voice	.	224.995	A:maj
8f#	so	.	.	.	.	.	.
8r	.	.	.	.	.	.	.
=134	=134	=134	=134	=134	=134	=134	=134
4r	.	2Bmm	.	voice	.	225.844	B:min7
4a	Don't	.	.	.	.	.	.
4a	stand	2Bmm	.	voice	.	226.692	B:min7/b7
4f#	so	.	.	.	.	.	.
=135	=135	=135	=135	=135	=135	=135	=135
4d	close	2DM	.	voice	.	227.541	D:maj/5
8e	to	.	.	.	.	.	.
4.f#	me	.	.	.	.	.	.
.	.	2AM	.	voice	.	228.39	A:maj
4r	.	.	.	.	.	.	.
=136	=136	=136	=136	=136	=136	=136	=136
4r	.	2DM	newline	voice	.	229.239	D:maj
4a	Don't	.	.	.	.	.	.
4a	stand	2AM	.	voice	.	230.053	A:maj
4r	.	.	.	.	.	.	.
=137	=137	=137	=137	=137	=137	=137	=137
4r	.	2DM	.	voice	.	230.867	D:maj
4a	Don't	.	.	.	.	.	.
4a	stand	2AM	.	voice	.	231.681	A:maj
8f#	so	.	.	.	.	.	.
8r	.	.	.	.	.	.	.
=138	=138	=138	=138	=138	=138	=138	=138
4r	.	2Bmm	.	voice	.	232.495	B:min7
4a	Don't	.	.	.	.	.	.
4a	stand	2Bmm	.	voice	.	233.308	B:min7/b7
4f#	so	.	.	.	.	.	.
=139	=139	=139	=139	=139	=139	=139	=139
4d	close	2DM	.	voice	.	234.122	D:maj/5
8e	to	.	.	.	.	.	.
4.f#	me	.	.	.	.	.	.
.	.	2AM	.	voice	.	234.936	A:maj
4r	.	.	.	.	.	.	.
=140	=140	=140	=140	=140	=140	=140	=140
1r	.	2DM	.	voice	.	235.75	D:maj
.	.	2AM	.	voice	.	236.564	A:maj
r;	.	1r;	.	r	.	237.378	N.C.
r;	.	1r;	.	r	.	243.096	N.C.
*-	*-	*-	*-	*-	*-	*-	*-
!!!BillboardChartDate: 1981/03/21, 1981/04/04
!!!BillboardPeak: 10, 10
!!!BillboardWeeksOnChart: 18, 18
!!!COC: The Police
!!!ENC: Nathaniel Condit-Schultz
!!!EST: Awating manual error checking and editing.
!!!OTL: Don't Stand So Close To Me
!!!RDF**chordsym: original McGill chord annotation + (implied pitch class set, with bass pitch in first position)
!!!RDF**harmony: **recip + pitch class of root + harmonic quality
!!!RDF**leadinstrument: original McGill primary instrumentation annotation
!!!RDF**phrase: newline = linebreak in original McGill transcription
!!!RDF**timestamp: McGill audio timestamp in seconds
!!!RDT: 2017/01/12/
!!!SampleActualRank: 15, 12
!!!SampleID#: 492, 881
!!!SampleTargetRank: 14, 11
